Catalina-light/actions/16/notifications-disabled.svg

<?xml version="1.0" encoding="UTF-8" standalone="no"?>
<svg
   version="1.1"
   viewBox="0 0 16 16"
   id="svg12"
   sodipodi:docname="notifications-disabled.svg"
   inkscape:version="1.1.2 (0a00cf5339, 2022-02-04)"
   width="16"
   height="16"
   xmlns:inkscape="http://www.inkscape.org/namespaces/inkscape"
   xmlns:sodipodi="http://sodipodi.sourceforge.net/DTD/sodipodi-0.dtd"
   xmlns="http://www.w3.org/2000/svg"
   xmlns:svg="http://www.w3.org/2000/svg">
  <sodipodi:namedview
     id="namedview14"
     pagecolor="#ffffff"
     bordercolor="#666666"
     borderopacity="1.0"
     inkscape:pageshadow="2"
     inkscape:pageopacity="0.0"
     inkscape:pagecheckerboard="0"
     showgrid="false"
     inkscape:zoom="7.2159091"
     inkscape:cx="-23.351181"
     inkscape:cy="12.818898"
     inkscape:window-width="1920"
     inkscape:window-height="1026"
     inkscape:window-x="0"
     inkscape:window-y="28"
     inkscape:window-maximized="1"
     inkscape:current-layer="svg12" />
  <defs
     id="defs3">
    <style
       id="current-color-scheme"
       type="text/css">.ColorScheme-Text { color:#363636; }</style>
  </defs>
  <g
     id="22-22-notification-empty"
     class="ColorScheme-Text"
     fill="currentColor"
     style="color:#363636"
     transform="matrix(0.72950911,0,0,0.72950911,-0.02376815,0.24966276)">
    <rect
       width="22"
       height="22"
       ry="0"
       opacity="0"
       id="rect9"
       x="0"
       y="0" />
    <path
       id="path11"
       class="ColorScheme-Text"
       d="M 11,3.2421875 C 10.408836,3.2420757 9.9295757,3.7213364 9.9296875,4.3125 V 4.32227 C 8.0420141,4.8102397 6.7208906,6.6420562 6.71875,8.5917969 c 0,0 9.911e-4,5.3519691 -1.7753906,6.0175781 -0.017122,0.01062 -0.02478,0.03101 -0.042969,0.04492 -0.067203,0.05263 -0.1252731,0.115982 -0.171875,0.1875 -0.019257,0.02889 -0.041654,0.05101 -0.056641,0.08203 -0.058396,0.11022 -0.089853,0.232704 -0.091797,0.357422 0,0.444095 0.3586387,0.802734 0.8027344,0.802734 H 16.617188 c 0.445164,0 0.802734,-0.358639 0.802734,-0.802734 -0.0019,-0.124718 -0.0334,-0.247202 -0.0918,-0.357422 -0.01499,-0.03211 -0.03649,-0.05315 -0.05469,-0.08203 -0.04717,-0.07168 -0.105915,-0.135044 -0.173829,-0.1875 -0.01713,-0.01289 -0.02477,-0.03422 -0.04297,-0.04492 C 15.280258,13.943766 15.28125,8.5917969 15.28125,8.5917969 15.279126,6.6420562 13.959055,4.8102359 12.070312,4.3222656 V 4.3125 C 12.070424,3.7213366 11.591163,3.242076 11,3.2421875 Z M 8.9316406,17.152344 C 9.1751444,18.096007 10.025428,18.756 11,18.757812 c 0.976027,-3.3e-5 1.828397,-0.660399 2.072266,-1.605468 z"
       sodipodi:nodetypes="cscccccccsscccccccsccccc"
       style="fill:#363636;fill-opacity:1;opacity:0.45905091" />
  </g>
</svg>

<svg width="16" height="16" version="1.1" viewBox="0 0 16 16" xmlns="http://www.w3.org/2000/svg">
<defs>
<style id="current-color-scheme" type="text/css">.ColorScheme-Text { color:#363636; }</style>
</defs>
<g class="ColorScheme-Text" transform="matrix(.72951 0 0 .72951 -.023768 .24966)" color="#363636" fill="currentColor">
<rect width="22" height="22" ry="0" opacity="0"/>
<path class="ColorScheme-Text" d="m11 3.2422c-0.59116-1.118e-4 -1.0704 0.47915-1.0703 1.0703v0.00977c-1.8877 0.48797-3.2088 2.3198-3.2109 4.2695 0 0 9.911e-4 5.352-1.7754 6.0176-0.017122 0.01062-0.02478 0.03101-0.042969 0.04492-0.067203 0.05263-0.12527 0.11598-0.17188 0.1875-0.019257 0.02889-0.041654 0.05101-0.056641 0.08203-0.058396 0.11022-0.089853 0.2327-0.091797 0.35742 0 0.4441 0.35864 0.80273 0.80273 0.80273h11.234c0.44516 0 0.80273-0.35864 0.80273-0.80273-0.0019-0.12472-0.0334-0.2472-0.0918-0.35742-0.01499-0.03211-0.03649-0.05315-0.05469-0.08203-0.04717-0.07168-0.10592-0.13504-0.17383-0.1875-0.01713-0.01289-0.02477-0.03422-0.04297-0.04492-1.7764-0.66561-1.7754-6.0176-1.7754-6.0176-0.002124-1.9497-1.3222-3.7816-3.2109-4.2695v-0.0097656c1.12e-4 -0.59116-0.47915-1.0704-1.0703-1.0703zm-2.0684 13.91c0.2435 0.94366 1.0938 1.6037 2.0684 1.6055 0.97603-3.3e-5 1.8284-0.6604 2.0723-1.6055z" fill="#363636" opacity=".45905"/>
</g>
</svg>
